!!!COM:	Ockeghem, Johannes
!!!CDT:	~1425-1497/02/06
!!!OPR:	Missa Mi mi
!!!ONM:	2
!!!OTL:	Gloria
!!!AGN:	Mass; Gloria
!!!SCT:	Ock1010b
!!!voices:	4
!!!voices-OPR:	4
**kern	**kern	**kern	**kern
*staff4	*staff3	*staff2	*staff1
*Ivox	*Ivox	*Ivox	*Ivox
*I"Bassus	*I"Tenor	*I"Altus	*I"Superius
*I'B	*I'T	*I'A	*I'S
*clefF4	*clefGv2	*clefGv2	*clefG2
*k[]	*k[]	*k[]	*k[]
*M3/1	*M3/1	*M3/1	*M3/1
*met(O)	*met(O)	*met(O)	*met(O)
=1-	=1-	=1-	=1-
!!section: Et in terra pax
!!!OMD: Et in terra pax
[0.E	[0.B	0e	0e
.	.	1e	1g
=2	=2	=2	=2
1E]	1B]	1e	1g
0AA	0c	0e	1.a
.	.	.	2f/
=3	=3	=3	=3
0E	1B	0e	2.g/
.	.	.	4a/
.	1G	.	2b\
.	.	.	1cc
1F	1A	1r	.
.	.	.	4b\
.	.	.	4a/
=4	=4	=4	=4
1E	2B\	0e	2g/
.	2E/	.	2a/
1r	2G/	.	2b\
.	2A/	.	1a
1E	1B	1e	.
.	.	.	2g#i/
=5	=5	=5	=5
1.F	0A	1c	0a
.	.	[0d	.
2D\	.	.	.
1D	1F	.	1a
=6	=6	=6	=6
1D	1F	0.d]	1a
0GG	1.G	.	1.b
.	2E/	.	2a/
=7	=7	=7	=7
!!linebreak:original
1D	1F	1d	1a
1E	1G	2c\	2g/
.	.	2B\	2.b\
1D	1r	1d	.
.	.	.	4a/
.	.	.	4g/
.	.	.	4f/
=8	=8	=8	=8
2C/	0G	1r	1e
2.E\	.	.	.
.	.	1B	2r
4D\	.	.	.
4C/	.	.	1e
4BB/	.	.	.
1AA	1A	2c\	.
.	.	2A/	2c/
=9	=9	=9	=9
2r	2B\	1G	2d/
1C	2c\	.	1e
.	1A	2E/	.
2D\	.	2D/	2f/
1E	2G/	2r	2.g/
.	[2c\	2G/	.
.	.	.	8f/L
.	.	.	8g/J
=10	=10	=10	=10
2AA/	2c\]	2E/	2a/
2BB/	2B\	2D/	4g/
.	.	.	2f/
1C	2A/	2C/	.
.	.	.	4e/
.	2G/	2c\	1e
1D	1F	4B\	.
.	.	2A/	.
.	.	.	2d/
.	.	4G/	.
=11	=11	=11	=11
2r	1E	1B	1e
1G	.	.	.
.	1C	1r	1r
1E	.	.	.
.	1r	1B	1e
2C/	.	.	.
=12	=12	=12	=12
0.C	1G	1.c	1.e
.	2G/	.	.
.	2G/	2c\	2e/
.	1G	1c	1e
=13	=13	=13	=13
1C	1G	1c	1e
0F	0A	0c	1.f
.	.	.	2e/
=14	=14	=14	=14
!!linebreak:original
1C	2.G/	1c	1e
.	4A/	.	.
1r	2B\	1r	2.g/
.	1c	.	.
.	.	.	4f/
1G	.	1r	1d
.	2B\	.	.
=15	=15	=15	=15
2.A\	1c	2r	0c
.	.	2.F/	.
4B\	.	.	.
2c\	1r	.	.
.	.	4G/	.
1c	.	2A/	.
.	1G	2G/	1r
2B\	.	2B\	.
=16	=16	=16	=16
2c\	2.A/	2A/	0c
1F	.	2.c\	.
.	4B\	.	.
.	2c\	.	.
.	.	4B\	.
2E\	1c	1G	.
1D	.	.	1d
.	2B\	2F/	.
=17	=17	=17	=17
1C	1c	1.G	1e
1r	2B\	.	2d/
.	2A/	2.F/	2f/
1r	1G	.	2g/
.	.	4D/	.
.	.	2E/	[2b-\
=18	=18	=18	=18
0.r	1F	2F/	4b-\]
.	.	.	4a/
.	.	2D/	4a/
.	.	.	4f/
.	2E/	2C/	2g/
.	2F/	1c	1f
.	1G	.	.
.	.	2B\	2e/
=19	=19	=19	=19
1D	1F	1A	1f
2C/	0G	1r	2e/
2D\	.	.	2.d/
1BB	.	1B	.
.	.	.	4c/
.	.	.	2d/
=20	=20	=20	=20
1AA	0A	0c	2c/
.	.	.	2.A/
1r	.	.	.
.	.	.	4B/
.	.	.	2c/
1r	1G	2.d\	1B
.	.	4e\	.
=21	=21	=21	=21
!!pagebreak:original
2.F\	1A	2f\	1A
.	.	2.e\	.
4G\	.	.	.
2.A\	1r	.	1r
.	.	4d\	.
.	.	1d	.
8G\L	.	.	.
8F\J	.	.	.
1E	1r	.	1g
.	.	2c#i\	.
=22	=22	=22	=22
1D	1A	1.d	1f
1r	2B-i\	.	2g/
.	2A/	2e\	2.a/
1D	1F	2f\	.
.	.	.	4g/
.	.	2d\	2f/
=23	=23	=23	=23
1C	2.G/	1e	2e/
.	.	.	2.g/
.	4F/	.	.
0D	2D/	2r	.
.	.	.	4f/
.	2A/	2d\	2.f/
.	1B	1d	.
.	.	.	4d/
.	.	.	4d/
.	.	.	4B/
=24	=24	=24	=24
1AA	2.A/	2e\	2c/
.	.	2.c\	1e
.	4G/	.	.
2C/	2E/	.	.
.	.	4A/	.
2D\	2F/	2B\	1d
1AA	1E	1A	.
.	.	.	2c#i/
=25	=25	=25	=25
1r	1.D	1A	0d
1r	.	[0d	.
.	1.F	.	.
1A	.	.	1r
=26	=26	=26	=26
1B-	1G	0d]	1.g
0G	0B-i	.	.
.	.	.	2g/
.	.	[1d	1g
=27	=27	=27	=27
1F	1.A	2d\]	1.a
.	.	2c\	.
0D	.	0d	.
.	2A/	.	2a/
.	1F	.	1b
=28	=28	=28	=28
!!linebreak:original
1C	1E	1G	1cc
0D	2F/	2r	2b\
.	2D/	1d	1a
.	2.F/	.	.
.	.	2B\	4g/
.	4G/	.	4f/
=29	=29	=29	=29
1AA	1A	2.c\	1e
.	.	4A/	.
1r	1c	1A	2e/
.	.	.	1e
1r	1c	1e	.
.	.	.	2e/
=30	=30	=30	=30
0F	0.c	0.f	2a/
.	.	.	2a/
.	.	.	1a
1F	.	.	1a
=31	=31	=31	=31
2D\	2r	0.r	2f/
1C	0c	.	2e/
.	.	.	2.g/
1F	.	.	.
.	.	.	4f/
.	.	.	1d
2G\	2B\	.	.
=32	=32	=32	=32
1A	1c	2r	1c
.	.	2F/	.
2B\	1r	2G/	1r
2A\	.	2.A/	.
1c	[1A	.	1r
.	.	4F/	.
.	.	2c\	.
=33	=33	=33	=33
1F	1A]	2d\	0.r
.	.	1f	.
1G	1B	.	.
.	.	2e\	.
1F	1c	2.f\	.
.	.	4e\	.
=34	=34	=34	=34
1r	1B	4d\	0.r
.	.	4c\	.
.	.	2.d\	.
1F	1A	.	.
.	.	4c\	.
.	.	2A/	.
2E\	2G/	2c\	.
[2D\	[2F/	2B\	.
=35	=35	=35	=35
!!linebreak:original
2D\]	2F/]	1A	0.r
4C/	4E/	.	.
4BB/	4D/	.	.
2.AA/	2.C/	2F/	.
.	.	2E/	.
4BB/	4D/	.	.
2C/	2E/	2A/	.
2D\	2F/	2B\	.
=36	=36	=36	=36
2AA/	4E/	2.c\	0.r
.	2A/	.	.
1C	.	.	.
.	4G/	4B\	.
.	2E/	4G/	.
.	.	4A/	.
2D\	2F/	4B\	.
.	.	2A/	.
1BB	1D	.	.
.	.	4G#i/	.
.	.	4G#i/	.
.	.	4F#i/	.
=37	=37	=37	=37
[0.AA	0.E	0A	1r
.	.	.	1r
.	.	2.A/	1a
.	.	4G/	.
=38	=38	=38	=38
0AA]	1r	0E	0a
.	1r	.	.
1r	1c	1e	1a
=39	=39	=39	=39
0.F	0c	1.f	1a
.	.	.	1.cc
.	.	4e\	.
.	.	4d\	.
.	1c	2.c\	.
.	.	.	4b\
.	.	4d\	4a/
=40	=40	=40	=40
1E	1r	1e	1g
1F	1F	1A	1.a
1D	2A/	1F	.
.	2B\	.	4g/
.	.	.	4f/
=41	=41	=41	=41
1C	1c	2G/	2e/
.	.	2A/	2c/
2BB/	1r	2B\	2d/
2C/	.	2.G/	1c
1AA	1c	.	.
.	.	4F/	.
.	.	2E/	[2e/
=42	=42	=42	=42
!!linebreak:original
1GG	2B\	1G	2e/]
.	0G	.	2d/
1r	.	2C/	2e/
.	.	2G/	4d/
.	.	.	2d/
1r	.	2B\	.
.	.	.	4B/
.	2F/	2c\	2A/
=43	=43	=43	=43
0.r	2.G/	2B\	1G
.	.	1d	.
.	4A/	.	.
.	0B-	.	2r
.	.	2G/	2.g/
.	.	1d	.
.	.	.	4f/
.	.	.	2g/
=44	=44	=44	=44
0.r	2.A/	2c\	4a/
.	.	.	4b\
.	.	2A/	2cc\
.	4F/	.	.
.	4G/	2.G/	4b\
.	4E/	.	4g/
.	2D/	.	4b\
.	.	2F/	2a/
.	4F/	.	.
.	4G/	4E/	2g/
.	2A/	2D/	.
.	.	.	4f#i/
=45	=45	=45	=45
1r	0.G	0d	1g
1r	.	.	1r
1C	.	1e	1g
=46	=46	=46	=46
0.F	1r	1.f	1.a
.	1r	.	.
.	.	4e\	4g/
.	.	4d\	4a/
.	2.A/	2c\	2.f/
.	.	2d\	.
.	4B\	.	4e/
=47	=47	=47	=47
1r	0c	0.A	0e
2r	.	.	.
2C/	.	.	.
2.F\	1c	.	1r
4G\	.	.	.
=48	=48	=48	=48
1.A	1.c	1r	1r
.	.	2r	1r
4G\	4B\	2A/	.
4A\	4c\	.	.
2.F\	2.A/	2c\	1a
.	.	2d\	.
4E\	4G/	.	.
=49	=49	=49	=49
!!pagebreak:original
1E	1G	1.e	1b
1AA	0A	.	1.cc
.	.	4d\	.
.	.	4e\	.
1r	.	2.c\	.
.	.	.	4b\
.	.	4B\	4a/
=50	=50	=50	=50
0E	1E	1B	2.g/
.	.	.	4a/
.	1G	0e	2b\
.	.	.	4a/
.	.	.	4b\
[1AA	1A	.	2cc\
.	.	.	2a/
=51	=51	=51	=51
1AA]	1c	1e	1.a
1r	0B	2d\	.
.	.	1d	1g#i
1r	.	.	.
.	.	4c\	2f#i/
.	.	4d\	.
=52	=52	=52	=52
2r	1A	1e	1a
2C/	.	.	.
1D	1r	2d\	2f/
.	.	2B\	2d/
1AA	1A	1c	1e
=53	=53	=53	=53
1D	1F	1d	2f/
.	.	.	2.d/
2r	2G/	2B\	.
.	.	.	4e/
2.D\	2F/	2A/	2.f/
.	1A	1d	.
4E\	.	.	4g/
2F\	.	.	2a/
=54	=54	=54	=54
2D\	2F/	2d\	2b\
2C/	2G/	2e\	2.cc\
2AA/	2A/	2c\	.
.	.	.	4b\
2GG/	2B\	1d	4a/
.	.	.	4g/
1D	1A	.	2.f#i/
.	.	2d\	.
.	.	.	4e/
=55	=55	=55	=55
2r	1G	2B\	1g
1C	.	2.c\	.
.	2A/	.	2e/
.	.	4A/	.
2D\	2F/	2A/	2f/
1E	1G	2r	4e/
.	.	.	4c/
.	.	2G/	2B/
=56	=56	=56	=56
!!linebreak:original
1AA	1A	1E	2A/
.	.	.	2c/
2r	2B\	2D/	2d/
1AA	2c\	1C	2.e/
.	2A/	.	.
.	.	.	4f/
[2GG/	2B\	2D/	[2g/
=57	=57	=57	=57
2GG/]	2G/	1d	4g/]
.	.	.	4f/
2D\	2A/	.	2.f/
2E\	2E/	2B\	.
.	.	.	4e/
2C/	2G/	2c\	2.e/
1D	1F	4A/	.
.	.	2A/	4c/
.	.	.	2d/
.	.	4G/	.
=58	=58	=58	=58
2AA/	2E/	2A/	4c/
.	.	.	4A/
2BB/	4r	2D/	2G/
.	4D/	.	.
4C/	4E/	2r	4A/
2D\	2F/	.	4.B/
.	.	2BB/	.
.	.	.	8c/
4GG/	4.G/	.	4d/
4AA/	.	2C/	4c/
.	8F/	.	.
4C/	4E/	.	2A/
2BB/	4F/	4D/	.
.	4D/	4BB/	4G#i/
=59	=59	=59	=59
1AA	1E	2C/	2A/
.	.	2.c\	4r
.	.	.	2c/
1r	1A	.	.
.	.	4A/	4d/
.	.	2c\	4e/
.	.	.	4f/
1r	2G/	1B	2.g/
.	[2E/	.	.
.	.	.	4e/
=60	=60	=60	=60
0.r	2E/]	2c\	2g/
.	2D/	2d\	1f
.	2G/	2B\	.
.	2A/	2c\	1e
.	1F	1A	.
.	.	.	2d/
=61	=61	=61	=61
1.E	[0.El	1B	[0.el
.	.	1G	.
1C	.	.	.
.	.	[1A	.
2AA/	.	.	.
=62	=62	=62	=62
2AA/	0.E]	2A/]	0.e]
2GG/	.	2B\	.
1AA	.	1c	.
1EEl	.	1Bl	.
!!linebreak:original
!!LO:LB:i:g=z
=63||	=63||	=63||	=63||
*>B	*>B	*>B	*>B
!!section: Qui tollis
!!!OMD: Qui tollis
*M2/1	*M2/1	*M2/1	*M2/1
*met(C|)	*met(C|)	*met(C|)	*met(C|)
0r	0F	0D	0A
=64	=64	=64	=64
0r	1E	1G	1c
.	1E	1G	1c
=65	=65	=65	=65
0r	1D	1A	1d
.	1D	1A	1d
=66	=66	=66	=66
0r	1.G	0B-	1.d
.	2A/	.	2c/
=67	=67	=67	=67
0r	1B-	0G	1d
.	2A/	.	1e
.	2G/	.	.
=68	=68	=68	=68
0r	1F	1D	1f
.	1G	1C	2e/
.	.	.	2d/
=69	=69	=69	=69
0r	1A	0c	1c
.	1A	.	1e
=70	=70	=70	=70
!!linebreak:original
1.F	1A	1A	1a
.	[1c	2F/	[1a
2C/	.	2G/	.
=71	=71	=71	=71
1F	1c]	1A	1a]
1G	1B	1E	1g
=72	=72	=72	=72
0D	1.A	0F	0f
.	2G/	.	.
=73	=73	=73	=73
0C	1c	0G	1e
.	1c	.	1e
=74	=74	=74	=74
1r	1c	0A	1a
1F	1c	.	1a
=75	=75	=75	=75
1A	1c	1r	1a
1A	1c	1e	1a
=76	=76	=76	=76
1E	0B	1e	1.g
[1E	.	1e	.
.	.	.	2e/
=77	=77	=77	=77
!!pagebreak:original
2E\]	1E	1c	1.g
2C/	.	.	.
[1BB	1D	[1d	.
.	.	.	2a/
=78	=78	=78	=78
1BB]	1G	1d]	1b
1AA	1A	2c\	[1e
.	.	2A/	.
=79	=79	=79	=79
0E	0B	0G	2e/]
.	.	.	2d/
.	.	.	1g
=80	=80	=80	=80
0AA	1A	0r	1f
.	[1c	.	[1e
=81	=81	=81	=81
0r	2c\]	0G	2e/]
.	2B\	.	2d/
.	1B	.	1d
=82	=82	=82	=82
0r	2A/	1A	2c/
.	2F/	.	2A/
.	1G	1E	1B
=83	=83	=83	=83
0r	0A	1r	0A
.	.	[1F	.
=84	=84	=84	=84
!!linebreak:original
0D	0F	2F/]	0r
.	.	2D/	.
.	.	2D/	.
.	.	2BB-/	.
=85	=85	=85	=85
[0AA	[0E	[0C	[0A
=86	=86	=86	=86
1AA]	1E]	1C]	1A]
1AA	1E	1C	1A
=87	=87	=87	=87
0AA	1E	0C	0A
.	1F	.	.
=88	=88	=88	=88
[0GG	[0G	[0D	[0B-i
=89	=89	=89	=89
1GG]	1G]	1D]	1B-]
1GG	1G	1D	1B-i
=90	=90	=90	=90
1GG	1G	1D	1B-i
1GG	1G	1D	1B-i
=91	=91	=91	=91
!!linebreak:original
0GG	0G	0D	0B-i
=92	=92	=92	=92
0D	0F	0D	1A
.	.	.	[1d
=93	=93	=93	=93
1BB-i	1D	0r	1d]
1AA	1E	.	1c
=94	=94	=94	=94
0GG	1.G	0D	0B-i
.	2E/	.	.
=95	=95	=95	=95
0AA	0E	0C	0A
=96	=96	=96	=96
1C	2r	0r	0r
.	2E/	.	.
1D	2D/	.	.
.	2F/	.	.
=97	=97	=97	=97
2E\	2G/	1r	0r
1F	1A	.	.
.	.	1F	.
2D\	2B\	.	.
=98	=98	=98	=98
!!linebreak:original
1C	1c	1G	1r
1c	1F	1A	[1a
=99	=99	=99	=99
1r	0c	1F	1a]
[1F	.	[1f	1a
=100	=100	=100	=100
1F]	1c	2f\]	1a
.	.	4e\	.
.	.	4d\	.
[1A	2r	1c	[1cc
.	[2F/	.	.
=101	=101	=101	=101
2A\]	2F/]	1r	2cc\]
2D\	2F/	.	2a/
1D	2A/	1d	1a
.	2F/	.	.
=102	=102	=102	=102
2E\	2E/	2B\	2g/
2D\	2F/	2A/	2a/
1BB	1G	1d	2b\
.	.	.	4a/
.	.	.	4b\
=103	=103	=103	=103
1AA	2A/	1c	1.cc
.	2B\	.	.
1r	1c	2A/	.
.	.	2F/	2b\
=104	=104	=104	=104
0r	1F	0c	1a
.	2r	.	1g
.	2C/	.	.
=105	=105	=105	=105
!!pagebreak:original
0r	2F/	2A/	2f/
.	2G/	2B\	1f
.	1A	1c	.
.	.	.	2e/
=106	=106	=106	=106
1r	1B	1G	1d
2r	2A/	2r	[1c
2C/	[2c\	2G/	.
=107	=107	=107	=107
2F\	4c\]	2A/	1c]
.	4B\	.	.
2G\	2G/	2B\	.
1A	1F	1c	2r
.	.	.	2c/
=108	=108	=108	=108
2.B-i\	1r	1d	2f/
.	.	.	2g/
4A\	.	.	.
1F	2r	1c	2a/
.	2A/	.	4g/
.	.	.	4a/
=109	=109	=109	=109
2G\	2G/	1r	2b-i\
2F\	1A	.	1a
1D	.	1d	.
.	2B\	.	2f/
=110	=110	=110	=110
1.C	[0c	2G/	0e
.	.	2.c\	.
.	.	4B\	.
2D\	.	2A/	.
=111	=111	=111	=111
1E	0c]	1G	1r
1F	.	1F	1a
=112	=112	=112	=112
!!linebreak:original
1D	1r	1f	1a
2C/	1c	1r	[1a
[2F\	.	.	.
=113	=113	=113	=113
2F\]	1.c	1f	1a]
2G\	.	.	.
1A	.	[1e	1a
.	2A/	.	.
=114	=114	=114	=114
1E	1B	2e\]	1g
.	.	2d\	.
1F	1A	1c	1a
=115	=115	=115	=115
1r	0G	1B	0b
[1E	.	[1e	.
=116	=116	=116	=116
2E\]	1r	2e\]	0e
2F\	.	2c\	.
1G	1B	1B	.
=117	=117	=117	=117
1A	1c	2r	0r
.	.	1A	.
2F\	1c	.	.
[2E\	.	[2G/	.
=118	=118	=118	=118
2E\]	1B	2G/]	0r
2D\	.	2F/	.
2C/	1A	1E	.
2AA/	.	.	.
=119	=119	=119	=119
!!linebreak:original
1BB	1G	1D	1r
1E	1r	1G	1b
=120	=120	=120	=120
0AA	1A	1r	1cc
.	2F/	[1e	1cc
.	[2E/	.	.
=121	=121	=121	=121
1r	2E/]	1e]	1b
.	2G/	.	.
1D	1F	1d	1a
=122	=122	=122	=122
1.E	1r	1.B	0g
.	1E	.	.
4D\	.	2c\	.
4C/	.	.	.
=123	=123	=123	=123
0BB	1G	1d	0r
.	1G	1D	.
=124	=124	=124	=124
0AA	1A	1E	1r
.	1c	1A	1e
=125	=125	=125	=125
0E	0B	1G	1g
.	.	1r	1g
=126	=126	=126	=126
!!linebreak:original
0F	2A/	1.c	1.a
.	1c	.	.
.	2A/	2d\	4g/
.	.	.	4f/
=127	=127	=127	=127
1E	1B	1e	1g
1r	2A/	[1e	2a/
.	2G/	.	[2b\
=128	=128	=128	=128
0r	1A	2e\]	2b\]
.	.	2c\	1a
.	1B	1d	.
.	.	.	2g#i/
=129	=129	=129	=129
1r	1c	1e	0a
1F	1F	1A	.
=130	=130	=130	=130
1E	1G	1B	1g
1C	[1A	1c	1e
=131	=131	=131	=131
0D	1A]	2A/	0f
.	.	1d	.
.	1B	.	.
.	.	2d\	.
=132	=132	=132	=132
0r	1c	1A	0e
.	2A/	[1c	.
.	[2A/	.	.
=133	=133	=133	=133
!!pagebreak:original
0AA	2A/]	1c]	1r
.	2F/	.	.
.	1E	1A	1c
=134	=134	=134	=134
1BB	1D	1G	1d
1AA	[1A	1r	1e
=135	=135	=135	=135
0D	1A]	1A	0f
.	1D	[1d	.
=136	=136	=136	=136
1G	0r	2d\]	0e
.	.	2B\	.
1A	.	1c	.
=137	=137	=137	=137
1B-	0G	0d	1d
[1G	.	.	1d
=138	=138	=138	=138
1G]	1B	0e	1g
1C	1c	.	1g
=139	=139	=139	=139
0D	1.A	0d	1f
.	.	.	1f
.	4G/	.	.
.	4F/	.	.
=140	=140	=140	=140
!!linebreak:original
1C	2.E/	1r	2.g/
.	4F/	.	4a/
1r	2G/	2d\	2b\
.	[2A/	2c\	[2cc\
=141	=141	=141	=141
0r	4A/]	1A	4cc\]
.	4G/	.	4b\
.	4F/	.	4a/
.	4E/	.	4g/
.	2D/	2A/	2f/
.	2C/	[2c\	[2a/
=142	=142	=142	=142
0r	2F/	2c\]	4a/]
.	.	.	4g/
.	2G/	2B\	1g
.	1A	1c	.
.	.	.	2f#i/
=143	=143	=143	=143
1G	1G	2.d\	1g
.	.	4B\	.
2F\	1r	2A/	1r
[2E\	.	2B\	.
=144	=144	=144	=144
2E\]	1C	2.G/	0r
4D\	.	.	.
4C/	.	4A/	.
2BB/	2D/	2B\	.
2AA/	[2E/	2c\	.
=145	=145	=145	=145
2C/	2E/]	2A/	1r
2D\	2F/	2.A/	.
1BB	1D	.	1g
.	.	4F/	.
.	.	2G/	.
=146	=146	=146	=146
1AA	1A	2r	2f/
.	.	2c\	1e
1r	2.G/	2B\	.
.	.	[2G/	4d/
.	4A/	.	4c/
=147	=147	=147	=147
!!linebreak:original
0r	2B\	2G/]	2B/
.	2c\	1A	2A/
.	2A/	.	2c/
.	[2A/	2D/	2d/
=148	=148	=148	=148
1r	2A/]	1E	1B
.	2G#i/	.	.
2r	1A	1e	1A
[2A\	.	.	.
=149	=149	=149	=149
2A\]	0r	1A	2c/
2F\	.	.	2d/
2G\	.	1B	1e
[2E\	.	.	.
=150	=150	=150	=150
2E\]	2G/	2r	2c/
2F\	1A	2A/	1d
1D	.	1d	.
.	2B\	.	2f/
=151	=151	=151	=151
1C	1c	1e	2e/
.	.	.	2g/
1D	2A/	1d	2f/
.	2F/	.	[2a/
=152	=152	=152	=152
1AA	1E	2.c\	4a/]
.	.	.	4g/
.	.	.	1a
.	.	4d\	.
1C	2E/	1e	.
.	[2G/	.	2g/
=153	=153	=153	=153
2E\	2G/]	2c\	2e/
2D\	2F/	2.d\	2.f/
1F	1A	.	.
.	.	4c\	4e/
.	.	2A/	4d/
.	.	.	4c/
=154	=154	=154	=154
!!linebreak:original
2G\	2E/	2G/	2B/
2C/	2G/	2c\	1e
1D	1F	4B\	.
.	.	2A/	.
.	.	.	2d/
.	.	4G/	.
=155	=155	=155	=155
2r	0E	0B	1.e
1G	.	.	.
2E\	.	.	2f/
=156	=156	=156	=156
!	!	!	!LO:TX:Z=10:t=N.B. Va63 ends here, Va234 continues as transcribed
1E	1r	0e	0g
1C	1E	.	.
=157	=157	=157	=157
0D	0F	0d	1f
.	.	.	[1a
=158	=158	=158	=158
0AA	1.E	0c	2a/]
.	.	.	4g/
.	.	.	4f/
.	.	.	2e/
.	2F/	.	2c/
=159	=159	=159	=159
1GG	0G	1B	1d
1EE	.	1G	[1e
=160	=160	=160	=160
0r	0F	0A	1e]
.	.	.	1d
=161	=161	=161	=161
!!pagebreak:original
0EEl	0El	0Bl	0el
==	==	==	==
*-	*-	*-	*-
!!!RDF**kern: l=long note in original notation
!!!RDF**kern: i=editorial accidental
!!!ENC:	Will Watson 20/1/2012
!!!END:	2012/01/20/
!!!EED:	Jesse Rodin
!!!EEV:	2012/03/13/
!!!ONB:	Translated from MusicXML and edited on 2012/03/13/ by Craig Sapp
!!muse2ps: T^@{OPR}^u^@{ONM}{. }@{OTL}^C^@{COM}^i2I100v85,90,85,150Q16
